src/modules/75-ce/components/COGatewayAccess/images/OthersHelpText.svg

<svg fill="none" height="22" viewBox="0 0 13 22" width="13" xmlns="http://www.w3.org/2000/svg"><path d="m.37207 6.9996c1.09935-1.21307 2.88177-1.21307 3.98112 0 1.09935-1.21307 2.88178-1.21307 3.98112 0 1.09935-1.21307 2.88179-1.21307 3.98109 0 0-3.63926-2.67357-6.589444-5.97165-6.589444s-5.97168 2.950184-5.97168 6.589444z" fill="#adeefa"/><path d="m6.34369.410156c-1.09983 0-1.99145 2.949604-1.99164 6.588334.00034.00037.00071.00074.00108.00111 1.09935-1.21307 2.88178-1.21307 3.98113 0 .00033-.00037.0007-.00074.00108-.00111-.00019-3.63873-.89181-6.588334-1.99165-6.588334z" fill="#ff7d97"/><path d="m3.66478 11.4126h5.35777c.82194 0 1.48825.7353 1.48825 1.6422v5.912c0 .907-.66631 1.6423-1.48825 1.6423h-5.35777c-.82193 0-1.48827-.7353-1.48827-1.6423v-5.912c0-.9069.66634-1.6422 1.48827-1.6422z" fill="#ffec80"/><path d="m4.85583 14.6163v-3.2042h2.97654v3.2042l-1.48827-1.177z" fill="#fff"/><g fill="#6b6d85"><path d="m12.6875 7c0-3.85981-2.84579-7-6.34375-7-3.49795 0-6.34375 3.14019-6.34375 7 0 .12818.0541358.24638.142688.32299l4.254962 3.67991h-.73279c-1.02579 0-1.86033.9209-1.86033 2.0528v1.1085c0 .2267.16657.4106.37206.4106.2055 0 .37207-.1839.37207-.4106v-1.1085c0-.6791.50073-1.2317 1.1162-1.2317h.81907v2.7937c0 .1539.07803.2949.20207.3653.12405.0702.2734.0581.38677-.0316l1.2715-1.0056 1.2715 1.0056c.06441.0509.14042.0769.21681.0769.05808 0 .11634-.015.16996-.0453.12405-.0704.20207-.2113.20207-.3653v-2.7937h.81803c.61547 0 1.11616.5526 1.11616 1.2317v5.912c0 .6792-.50069 1.2317-1.11616 1.2317h-5.35778c-.61547 0-1.1162-.5525-1.1162-1.2317v-1.1085c0-.2267-.16657-.4105-.37207-.4105-.20549 0-.37206.1838-.37206.4105v1.1085c0 1.1319.83454 2.0528 1.86033 2.0528h5.35778c1.02576 0 1.86036-.9209 1.86036-2.0528v-5.912c0-1.1319-.8346-2.0528-1.86036-2.0528h-.73279l4.25495-3.67991c.0886-.07661.1427-.19481.1427-.32299zm-.7993-.86866c-.9903-.61444-2.21694-.59912-3.19581.04492-.05492-1.49283-.25862-2.87797-.58735-3.96557-.15682-.51887-.32641-.92109-.50028-1.231388 2.23259.569078 3.95874 2.615288 4.28344 5.152038zm-5.54445-5.310226c.25688 0 .6874.431946 1.05533 1.649336.30361 1.00447.49325 2.2909.5478 3.68692-.49366-.31691-1.04823-.47608-1.60313-.47608s-1.10947.15917-1.60313.47608c.05455-1.39602.24419-2.68245.5478-3.68692.36794-1.21739.79845-1.649336 1.05533-1.649336zm1.54304 6.285266-1.54252 3.87922-1.54278-3.87996c.89501-.80511 2.19051-.80482 3.0853.00074zm-3.84435.13396 1.46178 3.67626-4.542277-3.9281c.935007-.72286 2.229127-.6389 3.080497.25184zm4.60444-.00193c.85144-.88894 2.14432-.97228 3.07872-.24991l-4.54072 3.9267zm-3.5641-6.259108c-.17387.310298-.34346.712478-.50029 1.231388-.32872 1.0876-.53242 2.47278-.58734 3.96561-.97887-.64404-2.20558-.65936-3.195837-.04492.324707-2.53679 2.050837-4.583 4.283467-5.152078zm2.37769 12.838998-.89943-.7113c-.06482-.0512-.14079-.0769-.21677-.0769-.07597 0-.15195.0257-.21677.0769l-.89943.7113v-1.9943h2.2324z"/><path d="m8.87387 19.036c.20549 0 .37206-.1839.37206-.4106s-.16657-.4106-.37206-.4106h-1.15341c-.2055 0-.37207.1839-.37207.4106s.16657.4106.37207.4106z"/><path d="m2.17663 16.4227c.09786 0 .19385-.044.26305-.1204.06921-.0763.10902-.1822.10902-.2902s-.03981-.2139-.10902-.2902c-.0692-.0764-.16519-.1203-.26305-.1203-.09785 0-.19384.0439-.26305.1203-.0692.0763-.10901.1822-.10901.2902s.03981.2139.10901.2902c.06921.0764.1652.1204.26305.1204z"/></g></svg>

<svg width="13" height="22" viewBox="0 0 13 22" fill="none" xmlns="http://www.w3.org/2000/svg">
<g id="XMLID 1594">
<path id="XMLID 1748" d="M0.37207 6.9996C1.47142 5.78653 3.25384 5.78653 4.35319 6.9996C5.45254 5.78653 7.23497 5.78653 8.33431 6.9996C9.43366 5.78653 11.2161 5.78653 12.3154 6.9996C12.3154 3.36034 9.64183 0.410156 6.34375 0.410156C3.04567 0.410156 0.37207 3.36034 0.37207 6.9996Z" fill="#ADEEFA"/>
<path id="XMLID 1595" d="M6.34369 0.410156C5.24386 0.410156 4.35224 3.35976 4.35205 6.99849C4.35239 6.99886 4.35276 6.99923 4.35313 6.9996C5.45248 5.78653 7.23491 5.78653 8.33426 6.9996C8.33459 6.99923 8.33496 6.99886 8.33534 6.99849C8.33515 3.35976 7.44353 0.410156 6.34369 0.410156Z" fill="#FF7D97"/>
<g id="XMLID 1857">
<path id="XMLID 1805" d="M3.66478 11.4126H9.02255C9.84449 11.4126 10.5108 12.1479 10.5108 13.0548V18.9668C10.5108 19.8738 9.84449 20.6091 9.02255 20.6091H3.66478C2.84285 20.6091 2.17651 19.8738 2.17651 18.9668V13.0548C2.17651 12.1479 2.84285 11.4126 3.66478 11.4126Z" fill="#FFEC80"/>
<path id="XMLID 1799" d="M4.85583 14.6163V11.4121H7.83237V14.6163L6.3441 13.4393L4.85583 14.6163Z" fill="white"/>
</g>
<g id="XMLID 594">
<path id="XMLID 1830" d="M12.6875 7C12.6875 3.14019 9.84171 0 6.34375 0C2.8458 0 0 3.14019 0 7C0 7.12818 0.0541358 7.24638 0.142688 7.32299L4.39765 11.0029H3.66486C2.63907 11.0029 1.80453 11.9238 1.80453 13.0557V14.1642C1.80453 14.3909 1.9711 14.5748 2.17659 14.5748C2.38209 14.5748 2.54866 14.3909 2.54866 14.1642V13.0557C2.54866 12.3766 3.04939 11.824 3.66486 11.824H4.48393V14.6177C4.48393 14.7716 4.56196 14.9126 4.686 14.983C4.81005 15.0532 4.9594 15.0411 5.07277 14.9514L6.34427 13.9458L7.61577 14.9514C7.68018 15.0023 7.75619 15.0283 7.83258 15.0283C7.89066 15.0283 7.94892 15.0133 8.00254 14.983C8.12659 14.9126 8.20461 14.7717 8.20461 14.6177V11.824H9.02264C9.63811 11.824 10.1388 12.3766 10.1388 13.0557V18.9677C10.1388 19.6469 9.63811 20.1994 9.02264 20.1994H3.66486C3.04939 20.1994 2.54866 19.6469 2.54866 18.9677V17.8592C2.54866 17.6325 2.38209 17.4487 2.17659 17.4487C1.9711 17.4487 1.80453 17.6325 1.80453 17.8592V18.9677C1.80453 20.0996 2.63907 21.0205 3.66486 21.0205H9.02264C10.0484 21.0205 10.883 20.0996 10.883 18.9677V13.0557C10.883 11.9238 10.0484 11.0029 9.02264 11.0029H8.28985L12.5448 7.32299C12.6334 7.24638 12.6875 7.12818 12.6875 7ZM11.8882 6.13134C10.8979 5.5169 9.67126 5.53222 8.69239 6.17626C8.63747 4.68343 8.43377 3.29829 8.10504 2.21069C7.94822 1.69182 7.77863 1.2896 7.60476 0.979302C9.83735 1.54838 11.5635 3.59459 11.8882 6.13134ZM6.34375 0.821114C6.60063 0.821114 7.03115 1.25306 7.39908 2.47045C7.70269 3.47492 7.89233 4.76135 7.94688 6.15737C7.45322 5.84046 6.89865 5.68129 6.34375 5.68129C5.78885 5.68129 5.23428 5.84046 4.74062 6.15737C4.79517 4.76135 4.98481 3.47492 5.28842 2.47045C5.65636 1.25306 6.08687 0.821114 6.34375 0.821114ZM7.88679 7.10638L6.34427 10.9856L4.80149 7.10564C5.6965 6.30053 6.992 6.30082 7.88679 7.10638ZM4.04244 7.24034L5.50422 10.9166L0.961943 6.9885C1.89695 6.26564 3.19107 6.3496 4.04244 7.24034ZM8.64688 7.23841C9.49832 6.34947 10.7912 6.26613 11.7256 6.9885L7.18488 10.9152L8.64688 7.23841ZM5.08278 0.979302C4.90891 1.2896 4.73932 1.69178 4.58249 2.21069C4.25377 3.29829 4.05007 4.68347 3.99515 6.1763C3.01628 5.53226 1.78957 5.51694 0.799313 6.13138C1.12402 3.59459 2.85015 1.54838 5.08278 0.979302ZM7.46047 13.8183L6.56104 13.107C6.49622 13.0558 6.42025 13.0301 6.34427 13.0301C6.2683 13.0301 6.19232 13.0558 6.1275 13.107L5.22807 13.8183V11.824H7.46047V13.8183Z" fill="#6B6D85"/>
<path id="XMLID 1839" d="M8.87387 19.036C9.07936 19.036 9.24593 18.8521 9.24593 18.6254C9.24593 18.3987 9.07936 18.2148 8.87387 18.2148H7.72046C7.51496 18.2148 7.34839 18.3987 7.34839 18.6254C7.34839 18.8521 7.51496 19.036 7.72046 19.036H8.87387Z" fill="#6B6D85"/>
<path id="XMLID 1841" d="M2.17663 16.4227C2.27449 16.4227 2.37048 16.3787 2.43968 16.3023C2.50889 16.226 2.5487 16.1201 2.5487 16.0121C2.5487 15.9041 2.50889 15.7982 2.43968 15.7219C2.37048 15.6455 2.27449 15.6016 2.17663 15.6016C2.07878 15.6016 1.98279 15.6455 1.91358 15.7219C1.84438 15.7982 1.80457 15.9041 1.80457 16.0121C1.80457 16.1201 1.84438 16.226 1.91358 16.3023C1.98279 16.3787 2.07878 16.4227 2.17663 16.4227Z" fill="#6B6D85"/>
</g>
</g>
</svg>
